Sweet-Rainbow/icons/applications-multimedia.svg

<?xml version="1.0" encoding="UTF-8" standalone="no"?>
<!-- Generator: Gravit.io -->

<svg
   xmlns:dc="http://purl.org/dc/elements/1.1/"
   xmlns:cc="http://creativecommons.org/ns#"
   xmlns:rdf="http://www.w3.org/1999/02/22-rdf-syntax-ns#"
   xmlns:svg="http://www.w3.org/2000/svg"
   xmlns="http://www.w3.org/2000/svg"
   xmlns:sodipodi="http://sodipodi.sourceforge.net/DTD/sodipodi-0.dtd"
   xmlns:inkscape="http://www.inkscape.org/namespaces/inkscape"
   style="isolation:isolate"
   viewBox="0 0 48 48"
   width="48"
   height="48"
   version="1.1"
   id="svg16"
   sodipodi:docname="applications-multimedia.svg"
   inkscape:version="0.92.4 (5da689c313, 2019-01-14)">
  <metadata
     id="metadata22">
    <rdf:RDF>
      <cc:Work
         rdf:about="">
        <dc:format>image/svg+xml</dc:format>
        <dc:type
           rdf:resource="http://purl.org/dc/dcmitype/StillImage" />
        <dc:title></dc:title>
      </cc:Work>
    </rdf:RDF>
  </metadata>
  <defs
     id="defs20" />
  <sodipodi:namedview
     pagecolor="#ffffff"
     bordercolor="#666666"
     borderopacity="1"
     objecttolerance="10"
     gridtolerance="10"
     guidetolerance="10"
     inkscape:pageopacity="0"
     inkscape:pageshadow="2"
     inkscape:window-width="640"
     inkscape:window-height="480"
     id="namedview18"
     showgrid="false"
     inkscape:zoom="39.153656"
     inkscape:cx="18.994082"
     inkscape:cy="24"
     inkscape:current-layer="svg16" />
  <linearGradient
     id="_lgradient_8"
     x1="0"
     y1="0.5"
     x2="1"
     y2="0.5"
     gradientTransform="matrix(46.5,0,0,41,0.75,3.5)"
     gradientUnits="userSpaceOnUse">
    <stop
       offset="0%"
       stop-opacity="1"
       style="stop-color:rgb(255,224,49)"
       id="stop2" />
    <stop
       offset="98.69565217391305%"
       stop-opacity="1"
       style="stop-color:rgb(252,82,82)"
       id="stop4" />
  </linearGradient>
  <linearGradient
     id="_lgradient_9"
     x1="0"
     y1="0.5"
     x2="1"
     y2="0.5"
     gradientTransform="matrix(19.644,0,0,21.003,15.5,13.499)"
     gradientUnits="userSpaceOnUse">
    <stop
       offset="0%"
       stop-opacity="1"
       style="stop-color:rgb(255,224,49)"
       id="stop9" />
    <stop
       offset="98.69565217391305%"
       stop-opacity="1"
       style="stop-color:rgb(252,82,82)"
       id="stop11" />
  </linearGradient>
  <g
     id="g831"
     transform="matrix(1.0322581,0,0,1.0322581,-0.7741944,-0.7741944)">
    <path
       id="path7"
       d="m 16.263,41.011 c 0.525,0 1.029,0.183 1.405,0.514 0.366,0.323 0.574,0.768 0.574,1.23 0,0.463 -0.208,0.908 -0.574,1.23 -0.376,0.332 -0.88,0.515 -1.405,0.515 H 7.253 C 3.664,44.5 0.75,41.586 0.75,37.997 V 10.003 C 0.75,6.414 3.664,3.5 7.253,3.5 h 33.494 c 3.589,0 6.503,2.914 6.503,6.503 v 27.994 c 0,3.589 -2.914,6.503 -6.503,6.503 h -9.01 c -0.525,0 -1.029,-0.183 -1.405,-0.515 -0.366,-0.322 -0.574,-0.767 -0.574,-1.23 0,-0.462 0.208,-0.907 0.574,-1.23 0.376,-0.331 0.88,-0.514 1.405,-0.514 h 6.911 c 2.563,0 4.645,-2.082 4.645,-4.645 V 11.634 c 0,-2.563 -2.082,-4.645 -4.645,-4.645 H 9.352 c -2.563,0 -4.645,2.082 -4.645,4.645 v 24.732 c 0,2.563 2.082,4.645 4.645,4.645 z"
       inkscape:connector-curvature="0"
       style="fill:url(#_lgradient_8)" />
    <path
       id="path14"
       d="M 32.584,27.275 19.919,33.98 C 17.48,35.272 15.5,34.08 15.5,31.32 V 16.68 c 0,-2.76 1.98,-3.952 4.419,-2.66 l 12.665,6.705 c 3.414,1.807 3.414,4.743 0,6.55 z m -6.773,-0.936 -1.892,1.002 C 21.48,28.632 19.5,27.44 19.5,24.68 v -1.36 c 0,-2.76 1.98,-3.952 4.419,-2.661 l 1.892,1.002 c 2.439,1.291 2.439,3.387 0,4.678 z"
       inkscape:connector-curvature="0"
       style="fill:url(#_lgradient_9);fill-rule:evenodd" />
  </g>
</svg>

<?xml version="1.0" standalone="no"?><!-- Generator: Gravit.io --><svg xmlns="http://www.w3.org/2000/svg" xmlns:xlink="http://www.w3.org/1999/xlink" style="isolation:isolate" viewBox="0 0 48 48" width="48" height="48"><linearGradient id="_lgradient_8" x1="0" y1="0.5" x2="1" y2="0.5" gradientTransform="matrix(46.5,0,0,41,0.75,3.5)" gradientUnits="userSpaceOnUse"><stop offset="0%" stop-opacity="1" style="stop-color:rgb(255,224,49)"/><stop offset="98.69565217391305%" stop-opacity="1" style="stop-color:rgb(252,82,82)"/></linearGradient><path d=" M 16.263 41.011 C 16.788 41.011 17.292 41.194 17.668 41.525 C 18.034 41.848 18.242 42.293 18.242 42.755 C 18.242 43.218 18.034 43.663 17.668 43.985 C 17.292 44.317 16.788 44.5 16.263 44.5 L 7.253 44.5 C 3.664 44.5 0.75 41.586 0.75 37.997 L 0.75 10.003 C 0.75 6.414 3.664 3.5 7.253 3.5 L 40.747 3.5 C 44.336 3.5 47.25 6.414 47.25 10.003 L 47.25 37.997 C 47.25 41.586 44.336 44.5 40.747 44.5 L 31.737 44.5 C 31.212 44.5 30.708 44.317 30.332 43.985 C 29.966 43.663 29.758 43.218 29.758 42.755 C 29.758 42.293 29.966 41.848 30.332 41.525 C 30.708 41.194 31.212 41.011 31.737 41.011 L 38.648 41.011 C 41.211 41.011 43.293 38.929 43.293 36.366 L 43.293 11.634 C 43.293 9.071 41.211 6.989 38.648 6.989 L 9.352 6.989 C 6.789 6.989 4.707 9.071 4.707 11.634 L 4.707 36.366 C 4.707 38.929 6.789 41.011 9.352 41.011 L 16.263 41.011 Z " fill="url(#_lgradient_8)"/><linearGradient id="_lgradient_9" x1="0" y1="0.5" x2="1" y2="0.5" gradientTransform="matrix(19.644,0,0,21.003,15.5,13.499)" gradientUnits="userSpaceOnUse"><stop offset="0%" stop-opacity="1" style="stop-color:rgb(255,224,49)"/><stop offset="98.69565217391305%" stop-opacity="1" style="stop-color:rgb(252,82,82)"/></linearGradient><path d=" M 32.584 27.275 L 19.919 33.98 C 17.48 35.272 15.5 34.08 15.5 31.32 L 15.5 16.68 C 15.5 13.92 17.48 12.728 19.919 14.02 L 32.584 20.725 C 35.998 22.532 35.998 25.468 32.584 27.275 Z  M 25.811 26.339 L 23.919 27.341 C 21.48 28.632 19.5 27.44 19.5 24.68 L 19.5 23.32 C 19.5 20.56 21.48 19.368 23.919 20.659 L 25.811 21.661 C 28.25 22.952 28.25 25.048 25.811 26.339 Z " fill-rule="evenodd" fill="url(#_lgradient_9)"/></svg>
